src/assets/foodIcons/fries-icon.svg

<svg class="iconPrimary" width="32" height="40" viewBox="0 0 32 40" fill="none" xmlns="http://www.w3.org/2000/svg">
<path d="M31.0337 17.1991C30.9699 17.1274 30.8911 17.0698 30.8025 17.0304C30.714 16.9909 30.6178 16.9704 30.5204 16.9703H29.4907L29.9696 6.86214C29.9779 6.68687 29.9144 6.51557 29.7932 6.38588C29.672 6.25618 29.5029 6.17869 29.3231 6.17042L22.1647 5.84595C21.9851 5.83814 21.8095 5.9001 21.6767 6.01824C21.5438 6.13639 21.4644 6.30109 21.4559 6.47621L21.3761 8.10164L20.8668 1.61236C20.8535 1.43806 20.77 1.27598 20.6345 1.16153C20.499 1.04708 20.3225 0.989565 20.1437 1.00156L12.9989 1.53611C12.8196 1.55002 12.6533 1.63257 12.5363 1.7657C12.4194 1.89883 12.3612 2.07171 12.3747 2.24651L12.4705 3.45799L5.62579 3.83148C5.53664 3.83644 5.44937 3.85851 5.36898 3.89641C5.2886 3.93432 5.21668 3.98733 5.15736 4.05238C5.09803 4.11744 5.05247 4.19328 5.02327 4.27554C4.99407 4.3578 4.98182 4.44487 4.98722 4.53176L5.19077 8.10086L1.9181 8.58872C1.74033 8.61558 1.58072 8.70999 1.47421 8.8513C1.36769 8.99261 1.32295 9.1693 1.34977 9.34269L2.54709 16.968H1.47908C1.38114 16.9679 1.28434 16.9884 1.19532 17.0282C1.1063 17.0681 1.02719 17.1262 0.963404 17.1986C0.899621 17.2711 0.852686 17.3562 0.825823 17.448C0.798961 17.5398 0.792808 17.6362 0.807787 17.7305L3.61829 36.6755C3.63395 36.781 3.6755 36.8813 3.73942 36.9679C3.80335 37.0544 3.88775 37.1247 3.98547 37.1727L7.5854 38.9296C7.72472 38.9981 7.88412 39.0174 8.03639 38.9841C13.2837 37.855 18.7205 37.855 23.9679 38.9841C24.0161 38.9946 24.0654 38.9998 24.1148 38.9996C24.2204 38.9998 24.3245 38.9759 24.4189 38.9296L28.0164 37.1727C28.1143 37.1248 28.1989 37.0547 28.263 36.9681C28.3271 36.8815 28.3687 36.7811 28.3844 36.6755L31.1925 17.7305C31.2068 17.636 31.2 17.5396 31.1726 17.4479C31.1452 17.3562 31.0978 17.2713 31.0337 17.1991ZM28.5855 7.45971L28.1322 16.9688H27.0945C26.9526 16.9689 26.8144 17.0124 26.6991 17.0931C26.5839 17.1737 26.4974 17.2875 26.4519 17.4185L26.4399 17.4527C26.404 17.5562 26.3657 17.6581 26.3266 17.764L26.2859 17.869C26.2468 17.9671 26.2061 18.0643 26.1646 18.1616C26.143 18.2098 26.1215 18.2588 26.0991 18.3071C26.072 18.3685 26.044 18.4285 26.0153 18.4892C25.9722 18.5794 25.9291 18.6689 25.8836 18.7576L25.8397 18.8424C25.4607 19.5707 24.998 20.2546 24.4604 20.881L25.6154 12.6994C25.6399 12.5254 25.5925 12.3491 25.4837 12.2092C25.4702 12.1919 25.4558 12.1753 25.4406 12.1594C25.3339 12.0476 25.191 11.975 25.0359 11.954L22.5694 11.6233L22.7809 7.20061L28.5855 7.45971ZM24.3869 34.4774H7.61254L6.73451 28.3709H25.269L24.3869 34.4774ZM25.3448 27.8262H6.65389L5.60663 20.5597C6.71716 22.2262 8.23256 23.5997 10.0183 24.5583L10.0886 24.5956L10.2323 24.6734L10.344 24.7302L10.3736 24.745C10.5683 24.8415 10.7663 24.9333 10.9658 25.0197L10.977 25.0243C11.2532 25.1442 11.5339 25.2536 11.8191 25.3527L11.8375 25.3597L12.029 25.4243L12.0841 25.4422L12.2645 25.499L12.3212 25.5161L12.4872 25.5659L12.5303 25.5776C12.6349 25.6071 12.741 25.6359 12.8496 25.6631L12.9534 25.6896C13.0611 25.7161 13.1689 25.7402 13.2774 25.7674L13.3908 25.7923C13.4993 25.8149 13.6087 25.8359 13.7189 25.8561L13.833 25.8763C13.944 25.8958 14.0557 25.9129 14.1682 25.9293L14.2752 25.9448C14.3902 25.9604 14.5059 25.9744 14.6224 25.9868L14.7166 25.9969C14.8371 26.0086 14.9561 26.0195 15.0798 26.0281L15.1556 26.0335C15.2833 26.0421 15.4111 26.0491 15.5396 26.0537H15.5899C15.724 26.0584 15.8581 26.0608 15.993 26.0608H16.0025H16.1167H16.2484H16.3953H16.495C16.5501 26.0608 16.6052 26.0561 16.6595 26.053H16.7393C16.7999 26.053 16.8598 26.0452 16.9205 26.0413L16.9787 26.0374L17.1751 26.0203H17.2142C17.2853 26.0133 17.3563 26.0063 17.4265 25.9977H17.4457C18.2117 25.911 18.9677 25.7547 19.7038 25.5309L19.7493 25.5169L19.909 25.4663L20.0016 25.4359L20.0702 25.4134L20.1205 25.3955L20.2578 25.3472L20.3664 25.3083L20.5116 25.2539L20.6713 25.1932L20.8309 25.1286L20.9451 25.0804L21.0672 25.0282L21.1805 24.9777L21.3067 24.9208L21.4088 24.8726L21.5685 24.7948L21.6371 24.7613C23.5737 23.7992 25.2166 22.3574 26.4008 20.5807L25.3448 27.8262ZM22.8791 22.3843C22.4706 22.7042 22.0389 22.9952 21.5876 23.255C21.5262 23.2907 21.4647 23.3258 21.4024 23.36C21.3601 23.3833 21.317 23.4051 21.2747 23.4277C21.1949 23.4689 21.1199 23.5094 21.0424 23.5483L20.9307 23.6028C20.8429 23.6456 20.7551 23.6876 20.6657 23.728L20.5755 23.7693L20.4957 23.802L20.277 15.5519C20.2763 15.5295 20.2745 15.5071 20.2714 15.4849C20.2714 15.4849 20.2714 15.4795 20.2714 15.4764C20.2714 15.4569 20.265 15.4383 20.2602 15.4196C20.2297 15.2945 20.1626 15.1808 20.0669 15.0924C19.9712 15.0039 19.8511 14.9446 19.7214 14.9216H19.7118C19.6935 14.9216 19.6759 14.9162 19.6575 14.9146H19.6336H19.6009H19.5833L18.0667 14.952L18.4267 12.4037L19.3846 12.5313L21.7704 12.8519H21.776L24.1842 13.1748L22.8791 22.3843ZM17.302 16.291H17.306L18.9408 16.2498L19.1531 24.2844L19.0445 24.3171L18.9575 24.3404C18.849 24.37 18.7404 24.3972 18.631 24.4236L18.5512 24.4423C18.4395 24.468 18.3277 24.4921 18.2152 24.5139L18.1354 24.5302C18.0244 24.5513 17.9127 24.5707 17.8009 24.5886L17.7123 24.6026C17.603 24.6197 17.4936 24.6345 17.3834 24.6477L17.2853 24.6594C17.1783 24.6719 17.0697 24.682 16.962 24.6913L16.8566 24.7006C16.7465 24.7084 16.6355 24.7147 16.5246 24.7193L16.4288 24.7248C16.2859 24.7302 16.143 24.7326 16.0001 24.7326C15.8573 24.7326 15.7303 24.7326 15.5954 24.7248L15.4901 24.7201C15.3855 24.7154 15.2818 24.71 15.1788 24.7022L15.0782 24.6952C14.8044 24.6726 14.533 24.6415 14.264 24.5995L14.2233 24.5933C14.1012 24.5738 13.9783 24.552 13.8569 24.5287L13.7987 24.5178C13.6678 24.4913 13.5369 24.4641 13.4076 24.4338L13.3485 24.4182L13.137 16.3961L15.4302 16.3385L17.302 16.291ZM11.76 23.9093C11.644 23.8626 11.5294 23.8139 11.416 23.7631L11.3785 23.7467C11.2609 23.6948 11.1446 23.6401 11.0297 23.5825L11.0033 23.5693C10.882 23.5091 10.7617 23.4471 10.6425 23.3833L10.6338 23.3779C10.5228 23.318 10.4143 23.2557 10.3057 23.1927C9.98642 23.0055 9.67751 22.8018 9.37898 22.5819L7.81049 13.5288L13.382 12.6115L13.5377 12.5858L13.762 13.879L13.9647 15.0508L12.421 15.0897C12.3319 15.0919 12.2441 15.1112 12.1626 15.1465C12.0812 15.1818 12.0077 15.2324 11.9463 15.2954C11.8849 15.3584 11.8369 15.4326 11.8049 15.5137C11.773 15.5948 11.7577 15.6813 11.76 15.7682L11.9756 23.9926C11.9189 23.9708 11.8614 23.9506 11.8055 23.928L11.76 23.9093ZM19.5713 2.37256L20.2722 11.312L17.939 11.0008C17.8914 10.9942 17.8432 10.9927 17.7953 10.9961C17.6405 11.0075 17.4944 11.0702 17.3812 11.1739C17.2681 11.2775 17.1948 11.4158 17.1735 11.5657L16.6906 14.9846L16.1885 14.9971L15.3352 15.0189L15.103 13.6782L14.7629 11.7151C14.7477 11.6264 14.714 11.5417 14.6638 11.4663C14.6137 11.3908 14.5483 11.3261 14.4716 11.2763L14.442 11.2576L13.7787 2.8044L19.5713 2.37256ZM6.37771 5.11533L12.1783 4.79864L12.5575 11.4062L10.3528 11.7688L9.77489 8.08608C9.75969 7.98391 9.71967 7.88675 9.65816 7.80271C9.59666 7.71866 9.51544 7.65015 9.42129 7.60288L9.40452 7.59432C9.37638 7.58073 9.34731 7.56903 9.31752 7.55931H9.30395C9.27509 7.55075 9.24578 7.54374 9.21615 7.5383H9.20657C9.17484 7.53375 9.14285 7.53115 9.11078 7.53052H9.09242C9.06197 7.53092 9.03157 7.53326 9.00143 7.53752L8.55523 7.60444L6.53815 7.89934L6.37771 5.11533ZM2.79613 9.79399L6.00574 9.31546L7.23498 9.13183L8.53607 8.93809L9.015 11.9874L6.9149 12.3352C6.82678 12.3494 6.74239 12.3804 6.66657 12.4264C6.59075 12.4724 6.525 12.5325 6.47309 12.6034C6.42118 12.6742 6.38413 12.7544 6.36406 12.8392C6.34399 12.924 6.34131 13.0119 6.35615 13.0978L7.74903 21.1191C7.21356 20.532 6.74592 19.8894 6.35456 19.2027L6.30108 19.1077C6.26596 19.0455 6.23163 18.9825 6.19811 18.9194C6.15341 18.8354 6.10951 18.7498 6.0672 18.6642C6.04246 18.6144 6.01851 18.5638 5.99456 18.5133C5.96343 18.4471 5.9323 18.381 5.90197 18.3141C5.88281 18.2721 5.86366 18.23 5.8453 18.1873C5.8006 18.0853 5.75829 17.9826 5.71679 17.876C5.70082 17.8379 5.68645 17.7982 5.67129 17.7601C5.63297 17.6597 5.59147 17.5593 5.55954 17.4574L5.54517 17.4185C5.50022 17.2879 5.4145 17.1742 5.3 17.0934C5.18549 17.0126 5.04794 16.9688 4.9066 16.968H3.92001L2.79613 9.79399ZM2.26532 18.2907H4.42528C4.55459 18.6217 4.69774 18.9441 4.85472 19.2579L7.46886 37.3944L4.91059 36.1448L2.26532 18.2907ZM16.0025 36.8093C13.3345 36.8097 10.6739 37.0828 8.06433 37.624L7.68996 35.0236H24.3087L23.9336 37.624C21.3253 37.0849 18.6664 36.8136 16.0001 36.8147L16.0025 36.8093ZM27.0921 36.1394L24.533 37.389L24.897 34.8672C24.9165 34.8295 24.9268 34.788 24.9273 34.7458C24.9271 34.7283 24.9252 34.7108 24.9218 34.6937L27.1416 19.2602C27.298 18.9459 27.4412 18.6235 27.571 18.2931H29.7342L27.0921 36.1394Z" fill="currentColor"/>
</svg>

<svg xmlns="http://www.w3.org/2000/svg" width="32" height="40" fill="none" class="iconPrimary" viewBox="0 0 32 40">
    <path fill="currentColor" d="M31.034 17.2a.678.678 0 0 0-.514-.23h-1.03l.48-10.108a.652.652 0 0 0-.177-.476.687.687 0 0 0-.47-.216l-7.158-.324a.69.69 0 0 0-.488.172.655.655 0 0 0-.221.458l-.08 1.626-.51-6.49a.656.656 0 0 0-.232-.45.69.69 0 0 0-.49-.16l-7.145.534a.686.686 0 0 0-.463.23.652.652 0 0 0-.161.48l.095 1.212-6.844.373a.693.693 0 0 0-.469.221.658.658 0 0 0-.17.48L5.191 8.1l-3.273.488a.683.683 0 0 0-.444.262.65.65 0 0 0-.124.492l1.197 7.625H1.48a.694.694 0 0 0-.516.23.657.657 0 0 0-.155.532l2.81 18.945a.654.654 0 0 0 .367.498l3.6 1.757a.69.69 0 0 0 .451.054 37.889 37.889 0 0 1 15.932 0 .688.688 0 0 0 .451-.054l3.597-1.757a.653.653 0 0 0 .368-.497l2.808-18.946a.648.648 0 0 0-.158-.53Zm-2.448-9.74-.454 9.509h-1.038a.69.69 0 0 0-.395.124.663.663 0 0 0-.247.326l-.012.034c-.036.103-.074.205-.113.311l-.041.105-.121.293c-.022.048-.043.097-.066.145a7.671 7.671 0 0 1-.215.45l-.044.085a10.75 10.75 0 0 1-1.38 2.039l1.155-8.182a.65.65 0 0 0-.174-.54.687.687 0 0 0-.405-.205l-2.467-.33.212-4.423 5.805.259Zm-4.2 27.017H7.614l-.878-6.106h18.534l-.882 6.106Zm.959-6.65H6.654L5.607 20.56a12.267 12.267 0 0 0 4.411 3.998l.07.038.144.077.112.057.03.015c.194.096.392.188.592.275l.011.004c.276.12.557.23.842.329l.018.007.192.064.055.018.18.057.057.017.166.05.043.012c.105.03.211.058.32.085l.103.027c.108.026.216.05.324.077l.114.025c.108.023.218.044.328.064l.114.02c.111.02.223.037.335.053l.107.016c.115.015.23.03.347.042l.095.01c.12.012.24.023.363.031l.076.006c.127.008.255.015.384.02h.05c.134.004.268.007.403.007h.502c.055 0 .11-.005.165-.008h.08c.06 0 .12-.008.18-.012l.059-.004.196-.017h.04a9.01 9.01 0 0 0 .212-.022h.019a12.657 12.657 0 0 0 2.258-.467l.045-.014.16-.05.093-.031.068-.023.05-.018.138-.048.108-.039.146-.054.16-.06.159-.065.114-.049.122-.052.113-.05.127-.057.102-.048.16-.078.068-.034a12.287 12.287 0 0 0 4.764-4.18l-1.056 7.245Zm-2.466-5.443a10.978 10.978 0 0 1-1.477.976l-.127.068c-.08.04-.155.081-.233.12l-.111.055c-.088.043-.176.085-.265.125l-.09.041-.08.033-.219-8.25a.626.626 0 0 0-.006-.067v-.009c0-.02-.006-.038-.01-.056a.658.658 0 0 0-.194-.328.685.685 0 0 0-.346-.17h-.01c-.017 0-.035-.006-.053-.007h-.075l-1.516.037.36-2.548.958.127 2.385.32h.006l2.408.324-1.305 9.21Zm-5.577-6.093h.004l1.635-.041.212 8.034-.108.033-.088.023c-.108.03-.217.057-.326.084l-.08.018c-.111.026-.223.05-.336.072l-.08.016c-.11.021-.222.04-.334.059l-.089.014c-.109.017-.218.031-.329.045l-.098.011c-.107.013-.215.023-.323.032l-.105.01c-.11.007-.221.014-.332.018l-.096.006c-.143.005-.286.008-.429.008-.143 0-.27 0-.405-.008l-.105-.005a10.17 10.17 0 0 1-.311-.018l-.1-.007a11.302 11.302 0 0 1-.815-.096l-.04-.006c-.123-.02-.246-.041-.367-.064l-.058-.011c-.131-.027-.262-.054-.391-.084l-.06-.016-.211-8.022 2.293-.058 1.872-.047Zm-5.542 7.618a9.723 9.723 0 0 1-.344-.146l-.037-.016a7.856 7.856 0 0 1-.35-.165l-.026-.013c-.121-.06-.241-.122-.36-.186l-.01-.005a10.612 10.612 0 0 1-1.255-.796l-1.568-9.053 5.572-.918.156-.025.224 1.293.203 1.172-1.544.039a.693.693 0 0 0-.475.205.66.66 0 0 0-.186.473l.216 8.225c-.057-.022-.115-.042-.17-.065l-.046-.019Zm7.811-21.536.701 8.939-2.333-.311a.69.69 0 0 0-.558.173.657.657 0 0 0-.207.392l-.483 3.419-.502.012-.854.022-.232-1.34-.34-1.964a.646.646 0 0 0-.291-.439l-.03-.018-.663-8.454 5.792-.431ZM6.378 5.115l5.8-.316.38 6.607-2.205.363-.578-3.683a.639.639 0 0 0-.354-.483l-.016-.009a.698.698 0 0 0-.087-.035h-.014a.846.846 0 0 0-.088-.02h-.01a.783.783 0 0 0-.095-.008h-.019c-.03 0-.06.002-.09.007l-.447.066-2.017.295-.16-2.784ZM2.796 9.794l3.21-.479 1.229-.183 1.301-.194.479 3.05-2.1.347a.69.69 0 0 0-.442.268.653.653 0 0 0-.117.495l1.393 8.021a10.724 10.724 0 0 1-1.394-1.916l-.054-.095a8.364 8.364 0 0 1-.234-.444l-.072-.15c-.032-.067-.063-.133-.093-.2a8.022 8.022 0 0 1-.185-.438l-.046-.116c-.038-.1-.08-.2-.111-.303l-.015-.038a.662.662 0 0 0-.245-.326.69.69 0 0 0-.393-.125H3.92L2.796 9.794Zm-.53 8.497h2.16c.129.33.272.653.429.967l2.614 18.136-2.558-1.25-2.646-17.853Zm13.737 18.518c-2.668 0-5.33.274-7.939.815l-.374-2.6h16.619l-.375 2.6a39.12 39.12 0 0 0-7.934-.81l.003-.005Zm11.09-.67-2.56 1.25.364-2.522a.271.271 0 0 0 .025-.173l2.22-15.434c.156-.314.3-.637.429-.967h2.163L27.092 36.14Z"/>
</svg>
